_includes/icons/color-ppt.svg

<svg fill="#666" height="50" viewBox="0 0 48 48" width="50" xmlns="http://www.w3.org/2000/svg"><path d="m40 45h-32v-42h22l10 10z" fill="#ff6d00"/><path d="m38.5 14h-9.5v-9.5z" fill="#fff3e0"/><path d="m23.398438 29.5v3.5h-2v-10h3.402343c1 0 1.800782.300781 2.398438.898438.601562.601562.902344 1.402343.902344 2.402343s-.300782 1.699219-.902344 2.300782c-.597656.597656-1.398438.796875-2.398438.796875h-1.402343zm0-1.699219h1.402343c.398438 0 .699219-.101562.898438-.402343.199219-.296875.300781-.597657.300781-1.097657s-.101562-.902343-.300781-1.199218c-.199219-.300782-.5-.402344-.898438-.402344h-1.402343zm-8.398438 1.699219v3.5h-2v-10h3.398438c1 0 1.800781.300781 2.402343.898438.597657.601562.898438 1.402343.898438 2.402343s-.300781 1.699219-.898438 2.300782c-.601562.597656-1.402343.796875-2.402343.796875h-1.398438zm0-1.699219h1.398438c.402343 0 .703125-.101562.902343-.402343.199219-.296875.300782-.597657.300782-1.097657s-.101563-.902343-.300782-1.199218c-.199218-.300782-.5-.402344-.902343-.402344h-1.398438zm21-3.101562h-2.5v8.300781h-2v-8.300781h-2.398437v-1.699219h6.898437z" fill="#fff"/></svg>

<svg xmlns="http://www.w3.org/2000/svg" viewBox="0 0 48 48" width="50" height="50" fill="#666"><path d="M 40 45 L 8 45 L 8 3 L 30 3 L 40 13 Z" fill="#ff6d00"/><path d="M 38.5 14 L 29 14 L 29 4.5 Z" fill="#fff3e0"/><path d="M 23.398438 29.5 L 23.398438 33 L 21.398438 33 L 21.398438 23 L 24.800781 23 C 25.800781 23 26.601563 23.300781 27.199219 23.898438 C 27.800781 24.5 28.101563 25.300781 28.101563 26.300781 C 28.101563 27.300781 27.800781 28 27.199219 28.601563 C 26.601563 29.199219 25.800781 29.398438 24.800781 29.398438 L 23.398438 29.398438 Z M 23.398438 27.800781 L 24.800781 27.800781 C 25.199219 27.800781 25.5 27.699219 25.699219 27.398438 C 25.898438 27.101563 26 26.800781 26 26.300781 C 26 25.800781 25.898438 25.398438 25.699219 25.101563 C 25.5 24.800781 25.199219 24.699219 24.800781 24.699219 L 23.398438 24.699219 Z M 15 29.5 L 15 33 L 13 33 L 13 23 L 16.398438 23 C 17.398438 23 18.199219 23.300781 18.800781 23.898438 C 19.398438 24.5 19.699219 25.300781 19.699219 26.300781 C 19.699219 27.300781 19.398438 28 18.800781 28.601563 C 18.199219 29.199219 17.398438 29.398438 16.398438 29.398438 L 15 29.398438 Z M 15 27.800781 L 16.398438 27.800781 C 16.800781 27.800781 17.101563 27.699219 17.300781 27.398438 C 17.5 27.101563 17.601563 26.800781 17.601563 26.300781 C 17.601563 25.800781 17.5 25.398438 17.300781 25.101563 C 17.101563 24.800781 16.800781 24.699219 16.398438 24.699219 L 15 24.699219 Z M 36 24.699219 L 33.5 24.699219 L 33.5 33 L 31.5 33 L 31.5 24.699219 L 29.101563 24.699219 L 29.101563 23 L 36 23 Z" fill="#fff"/></svg>
